X: 11577
T: Edward Corcoran
R: jig
M: 6/8
K: Eminor
G|GFG E2G|GFG EBA|GFE D3|GFE D3|
GFG A^GA|B^AB e2f|gfe fed|edB dBA|
BAG AGF|GFE FED|E3 EGF|E3 E2||
A|BAG AGF|dAA Aef|gfe fe^d|
eBB B2e|gfe fe^d|BAG AGF|agf gfe|GFE FED|
g3 a3|bag agf|gfe fe^d|e3 e2||

